X:1
T:title
M:4/4
Q:120
L:1/8
R:Reel
K:C
 ^A4 _d3 _F |  _da3 ^B4 | c3 ^b'3 _ca |  ^E _g'4 ^a'2 _g' |  ^A ^Ee'4A2 | g'3 _Gf'3e' |  _B2c3 ^Gb2 |  _D ^f' ^g'2e3d | 